assets/camunda/mono.svg

<svg viewBox="0 0 24 24" xmlns="http://www.w3.org/2000/svg"><path d="m3.327 0a3.327 3.327 0 0 0 -3.327 3.326v17.348a3.327 3.327 0 0 0 3.327 3.326h17.347a3.326 3.326 0 0 0 3.326-3.326v-17.348a3.326 3.326 0 0 0 -3.326-3.326zm8.687 3.307c1.875 0 2.84 1.105 2.84 3.049v1.175h-1.804v-1.301c0-.867-.392-1.203-.994-1.203-.615-.014-.993.322-.993 1.189v6.56c0 .867.392 1.175.993 1.175.616 0 .994-.308.994-1.175v-1.734h1.804v1.608c-.014 1.945-.979 3.049-2.854 3.049-1.874 0-2.839-1.119-2.839-3.035v-6.308c.014-1.944.979-3.049 2.853-3.049zm-2.853 14.169h5.693v3.217h-5.693z"/></svg>

<svg xmlns="http://www.w3.org/2000/svg" viewBox="0 0 24 24"><path d="M3.327 0A3.327 3.327 0 0 0 0 3.326v17.348A3.327 3.327 0 0 0 3.327 24h17.347A3.326 3.326 0 0 0 24 20.674V3.326A3.326 3.326 0 0 0 20.674 0zm8.687 3.307c1.875 0 2.84 1.105 2.84 3.049v1.175H13.05V6.23c0-.867-.392-1.203-.994-1.203-.615-.014-.993.322-.993 1.189v6.56c0 .867.392 1.175.993 1.175.616 0 .994-.308.994-1.175v-1.734h1.804v1.608c-.014 1.945-.979 3.049-2.854 3.049s-2.839-1.119-2.839-3.035V6.356c.014-1.944.979-3.049 2.853-3.049M9.161 17.476h5.693v3.217H9.161z"/></svg>
